X: 1
T: "Inspector Gadget" bulgar   [Dm]
S: Jon Cannon @ Brookline Klezmer Jam
Z: 2016 John Chambers <jc:trillian.mit.edu>
M: 4/4
L: 1/16
K: Dm
|:\
"Dm"DEFG A2d2 A2d2 A4 | "A7"AGGF FEED "Dm"DEFG "(A7)"A4 |\
"Dm"DEFG A2d2 A2d2 A4 | "A7"AGGF FEED "Dm"DED2- D4 :|
|:\
"A7"AGGF FEED "Dm"D2E2 F2G2 | "A7"AGGF FEED "Dm"DEFG A4 |\
"A7"AGGF FEED "Dm"D2E2 F2G2 | "A7"AGGF FEED "Dm"DED2- D4 :|
|:\
"Gm"BBBB B2B2 "Dm"d2d2 A4 | "A7"AGGF FEED "Dm"DEFG A4 |\
"Gm"BBBB B2B2 "Dm"d2d2 A4 | "A7"AGGF FEED "Dm"DED2- D4 :|

%%sep 1 1 500
%%sep 1 1 500

